icons/help-circle.svg

﻿<?xml version="1.0" encoding="utf-8"?>
<!DOCTYPE svg PUBLIC "-//W3C//DTD SVG 1.1//EN" "http://www.w3.org/Graphics/SVG/1.1/DTD/svg11.dtd">
<svg xmlns="http://www.w3.org/2000/svg" xmlns:xlink="http://www.w3.org/1999/xlink" version="1.1" baseProfile="full" width="24" height="24" viewBox="0 0 24.00 24.00" enable-background="new 0 0 24.00 24.00" xml:space="preserve">
	<path fill="#000000" fill-opacity="1" stroke-width="0.2" stroke-linejoin="round" d="M 15.0661,11.2518L 14.1711,12.1697C 13.4471,12.8937 12.9991,13.4977 12.9991,14.9977L 10.9991,14.9977L 10.9991,14.4977C 10.9991,13.3937 11.4471,12.3937 12.1711,11.6697L 13.4141,10.4117C 13.7751,10.0497 13.9991,9.54974 13.9991,8.99774C 13.9991,7.89374 13.1041,6.99774 11.9991,6.99774C 10.8951,6.99774 9.99908,7.89374 9.99908,8.99774L 7.99908,8.99774C 7.99908,6.78876 9.7901,4.99774 11.9991,4.99774C 14.2091,4.99774 15.9991,6.78876 15.9991,8.99774C 15.9991,9.87775 15.6431,10.6747 15.0661,11.2518 Z M 12.9991,18.9977L 10.9991,18.9977L 10.9991,16.9977L 12.9991,16.9977M 11.9991,1.99774C 6.4761,1.99774 1.99908,6.47473 1.99908,11.9977C 1.99908,17.5217 6.4761,21.9977 11.9991,21.9977C 17.5231,21.9977 21.9991,17.5217 21.9991,11.9977C 21.9991,6.47473 17.5231,1.99774 11.9991,1.99774 Z "/>
</svg>

<svg xmlns="http://www.w3.org/2000/svg" width="24" height="24" baseProfile="full" viewBox="0 0 24 24"><path d="M15.066 11.252l-.895.918c-.724.724-1.172 1.328-1.172 2.828h-2v-.5c0-1.104.448-2.104 1.172-2.828l1.243-1.258A2 2 0 1010 8.998H8a4 4 0 018 0c0 .88-.356 1.677-.933 2.254zM13 18.998h-2v-2h2m-1-15c-5.523 0-10 4.477-10 10 0 5.524 4.477 10 10 10 5.524 0 10-4.476 10-10 0-5.523-4.476-10-10-10z"/></svg>
